alphabet-latin.svg

<svg fill="currentColor" viewBox="0 0 24 24"><path d="M13 6v12h2v-.69c.37.42.9.69 1.5.69h.5c1.65 0 3-1.35 3-3v-3c0-1.64-1.35-3-3-3h-.5c-.6 0-1.13.27-1.5.7V6M5 9v2h3c.57 0 1 .43 1 1H7c-1.64 0-3 1.36-3 3 0 1.65 1.36 3 3 3h4v-6c0-1.64-1.35-3-3-3m8 2h1c.57 0 1 .43 1 1v3c0 .57-.43 1-1 1h-1c-.57 0-1-.43-1-1v-3c0-.57.43-1 1-1m-9 3h2v2H7c-.57 0-1-.43-1-1s.43-1 1-1"/></svg>

<svg  viewBox="0 0 24 24" fill="currentColor"><path  d="M13 6V18H15V17.31C15.37 17.73 15.9 18 16.5 18H17C18.65 18 20 16.65 20 15V12C20 10.36 18.65 9 17 9H16.5C15.9 9 15.37 9.27 15 9.7V6M5 9V11H8C8.57 11 9 11.43 9 12H7C5.36 12 4 13.36 4 15C4 16.65 5.36 18 7 18H11V12C11 10.36 9.65 9 8 9M16 11H17C17.57 11 18 11.43 18 12V15C18 15.57 17.57 16 17 16H16C15.43 16 15 15.57 15 15V12C15 11.43 15.43 11 16 11M7 14H9V16H7C6.43 16 6 15.57 6 15C6 14.43 6.43 14 7 14Z"/></svg>
